color/via.svg

<!-- Generated by IcoMoon.io -->
<svg version="1.1" xmlns="http://www.w3.org/2000/svg" width="32" height="32" viewBox="0 0 32 32">
<title>via</title>
<path fill="#565656" d="M32 16c0 8.837-7.163 16-16 16s-16-7.163-16-16c0-8.837 7.163-16 16-16s16 7.163 16 16z"></path>
<path fill="#fff" d="M11.133 14.296h-3.128v-1.719h2.47l-1.895-4.95 1.564-0.627 3.55 9.267 4.601 0.030 3.561-9.297 1.565 0.627-1.896 4.95h2.47v1.72h-3.128l-0.771 2.010 3.904 0.025-0.010 1.719-4.55-0.029-3.44 8.978-3.456-9.021-4.544-0.030 0.010-1.718 3.874 0.025zM14.353 17.99l1.647 4.298 1.638-4.277z"></path>
</svg>

<svg height="32" width="32" xmlns="http://www.w3.org/2000/svg"><g fill="none" fill-rule="evenodd"><circle cx="16" cy="16" fill="#565656" r="16"/><path d="M11.133 14.296H8.005v-1.719h2.47L8.58 7.627 10.144 7l3.55 9.267 4.601.03L21.856 7l1.565.627-1.896 4.95h2.47v1.72h-3.128l-.771 2.01 3.904.025-.01 1.719-4.55-.029L16 27l-3.456-9.021L8 17.949l.01-1.718 3.874.025zm3.22 3.694L16 22.288l1.638-4.277z" fill="#fff" fill-rule="nonzero"/></g></svg>
